svg/jetbrains.svg

<svg width="64" height="64" viewBox="0 0 512 512" fill="none" xmlns="http://www.w3.org/2000/svg"><path d="M171.465 50.535l-120.93 120.93A90.655 90.655 0 0024 235.555V451.75C24 471.76 40.24 488 60.25 488h216.195c24.07 0 47.052-9.57 64.09-26.535l120.93-120.93A90.651 90.651 0 00488 276.445V60.25C488 40.24 471.76 24 451.75 24H235.555c-24.07 0-47.052 9.57-64.09 26.535z" fill="url(#prefix__paint0_linear_55_2)"/><path d="M372 140.001H82v290h290v-290z" fill="#000"/><path d="M241.5 364.751H118.25v29H241.5v-29z" fill="#fff"/><defs><linearGradient id="prefix__paint0_linear_55_2" x1="30.163" y1="478.72" x2="477.995" y2="37.123" gradientUnits="userSpaceOnUse"><stop stop-color="#FF9419"/><stop offset=".43" stop-color="#FF021D"/><stop offset=".99" stop-color="#E600FF"/></linearGradient></defs></svg>

<svg width="48" height="48" viewBox="0 0 512 512" fill="none" xmlns="http://www.w3.org/2000/svg">
    <path
        d="M171.465 50.535L50.535 171.465C33.5432 188.466 23.9987 211.519 24 235.555L24 451.75C24 471.76 40.24 488 60.25 488H276.445C300.515 488 323.497 478.43 340.535 461.465L461.465 340.535C478.43 323.57 488 300.515 488 276.445V60.25C488 40.24 471.76 24 451.75 24H235.555C211.485 24 188.503 33.57 171.465 50.535Z"
        fill="url(#paint0_linear_55_2)" />
    <path d="M372 140.001H81.9995V430.001H372V140.001Z" fill="black" />
    <path d="M241.5 364.751H118.25V393.751H241.5V364.751Z" fill="white" />
    <defs>
        <linearGradient id="paint0_linear_55_2" x1="30.1625" y1="478.72" x2="477.995" y2="37.1225"
            gradientUnits="userSpaceOnUse">
            <stop stop-color="#FF9419" />
            <stop offset="0.43" stop-color="#FF021D" />
            <stop offset="0.99" stop-color="#E600FF" />
        </linearGradient>
    </defs>
</svg>
